X:1
%
T:Miss Sharpe's Fancy
M:6/8
L:1/8
Q:"With spirit."
B:Manson--Hamilton's Universal Tune Book, vol. 2 (1846, p. 42)
Z:AK/Fiddler's Companion
K:D
f|{c}d2A AFA|{GA}B2A AFA|{Bc}d2A AGF|ECA, A,2B/c/|
d2A AFA|{GA}B2A ABc|dgf eac|d3 d2:|
f/g/|afd dfa|gec ceg|fed {e}dcd|ecA A2 f/g/|
afd dfa|gec ceg|fad egc|{c}d3 d2 (f/g/)|
afd dfa|gec ceg|fed {e}dcd|ecA A2G|
FAd FDd|GBd GBd|Agf eac|{c}d3 D2||

